X: 1
T: The Monaghan Twig
R: reel
M: 4/4
L: 1/8
K: Amix
|:cAAB cded|cAAG ~E3B|cAAB cded|BAGB d2ed:|
cdef gfed|(3Bcd ef ~e3d|cdef ~g3e|dBGB d2ed|
cded cded|cAAB cdef|~g3e deed|BAGB d2ed||


Tune 1070	Setting 28676

